svg/down_arrow.svg

<svg xmlns="http://www.w3.org/2000/svg" viewBox="0 0 32 32" enable-background="new 0 0 32 32"><path d="M 15 4 L 15 24.0625 L 8.21875 17.28125 L 6.78125 18.71875 L 15.28125 27.21875 L 16 27.90625 L 16.71875 27.21875 L 25.21875 18.71875 L 23.78125 17.28125 L 17 24.0625 L 17 4 L 15 4 z" color="#000" overflow="visible" enable-background="accumulate"/></svg>

<svg xmlns="http://www.w3.org/2000/svg" viewBox="0 0 32 32"><path style="text-indent:0;text-align:start;line-height:normal;text-transform:none;block-progression:tb;-inkscape-font-specification:Bitstream Vera Sans" d="M15 4v20.063L8.22 17.28l-1.44 1.44 8.5 8.5.72.686.72-.687 8.5-8.5-1.44-1.44L17 24.063V4h-2z" color="#000" overflow="visible" font-family="Bitstream Vera Sans"/></svg>
